client/public/img/misc/player_icon_black.svg

<?xml version="1.0" encoding="UTF-8" standalone="no"?>
<!-- Created with Inkscape (http://www.inkscape.org/) -->

<svg
   width="20"
   height="20"
   viewBox="0 0 5.2916666 5.2916668"
   version="1.1"
   id="svg5"
   xmlns="http://www.w3.org/2000/svg"
   xmlns:svg="http://www.w3.org/2000/svg">
  <defs
     id="defs2" />
  <path
     id="circle1956"
     style="fill:#000000;fill-opacity:1;stroke-width:0.303731;stroke-linecap:round"
     d="M 2.6458336,0.05399685 A 2.4298471,2.4298471 0 0 0 0.21598663,2.4838439 2.4298471,2.4298471 0 0 0 0.42902009,3.475715 C 0.5469704,3.4281167 0.67553107,3.401786 0.80994923,3.401786 c 0.56404977,0 1.02604087,0.4619911 1.02604087,1.0260409 0,0.1121115 -0.018319,0.2201251 -0.051993,0.3213431 A 2.4298471,2.4298471 0 0 0 2.6458336,4.9136908 2.4298471,2.4298471 0 0 0 3.5094629,4.7541267 C 3.474723,4.6514772 3.4558881,4.5417783 3.4558881,4.4278269 c 0,-0.5640498 0.4618858,-1.0260409 1.0259354,-1.0260409 0.1342442,0 0.2626821,0.026237 0.3805073,0.073718 A 2.4298471,2.4298471 0 0 0 5.0756806,2.4838439 2.4298471,2.4298471 0 0 0 2.6458336,0.05399685 Z M 0.80994923,3.8338643 c -0.0570504,0 -0.11195779,0.008 -0.16399356,0.022674 a 2.4298471,2.4298471 0 0 0 0.74350783,0.702589 c 0.00935,-0.0422 0.014448,-0.086081 0.014448,-0.1313004 0,-0.3305945 -0.263368,-0.5939626 -0.59396227,-0.5939626 z m 3.67187427,0 c -0.3305945,0 -0.5938572,0.2633681 -0.5938572,0.5939626 0,0.046128 0.00526,0.090856 0.014976,0.1338314 A 2.4298471,2.4298471 0 0 0 4.6498246,3.8576987 C 4.5966377,3.8423033 4.5403067,3.8338643 4.4818235,3.8338643 Z" />
  <path
     style="color:#000000;fill:#000000;stroke-width:0.431973;stroke-linecap:round;-inkscape-stroke:none;fill-opacity:1"
     d="M 5.2916668,4.4277209 A 0.80994925,0.80994897 0 0 1 4.4817176,5.2376698 0.80994925,0.80994897 0 0 1 3.6717684,4.4277209 0.80994925,0.80994897 0 0 1 4.4817176,3.6177719 0.80994925,0.80994897 0 0 1 5.2916668,4.4277209 Z"
     id="path1679" />
  <path
     style="color:#000000;fill:#000000;stroke-width:0.431973;stroke-linecap:round;-inkscape-stroke:none;fill-opacity:1"
     d="M 1.6198985,4.4277209 A 0.80994925,0.80994897 0 0 1 0.8099492,5.2376698 0.80994925,0.80994897 0 0 1 -5.915901e-8,4.4277209 0.80994925,0.80994897 0 0 1 0.8099492,3.6177719 0.80994925,0.80994897 0 0 1 1.6198985,4.4277209 Z"
     id="path1688" />
</svg>

<svg xmlns="http://www.w3.org/2000/svg" width="20" height="20" viewBox="0 0 5.292 5.292"><path d="M2.646.054a2.43 2.43 0 0 0-2.43 2.43 2.4 2.4 0 0 0 .213.992q.179-.073.38-.074a1.03 1.03 0 0 1 .975 1.347 2.4 2.4 0 0 0 .862.165 2.4 2.4 0 0 0 .863-.16 1.03 1.03 0 0 1 1.353-1.279 2.4 2.4 0 0 0 .214-.991 2.43 2.43 0 0 0-2.43-2.43M.81 3.834a.6.6 0 0 0-.164.023 2.4 2.4 0 0 0 .743.702.59.59 0 0 0-.58-.725m3.672 0a.59.59 0 0 0-.58.728 2.4 2.4 0 0 0 .748-.704.6.6 0 0 0-.168-.024" style="fill:#000;fill-opacity:1;stroke-width:.303731;stroke-linecap:round"/><path d="M5.292 4.428a.81.81 0 0 1-.81.81.81.81 0 0 1-.81-.81.81.81 0 0 1 .81-.81.81.81 0 0 1 .81.81m-3.672 0a.81.81 0 0 1-.81.81.81.81 0 0 1-.81-.81.81.81 0 0 1 .81-.81.81.81 0 0 1 .81.81" style="color:#000;fill:#000;stroke-width:.431973;stroke-linecap:round;-inkscape-stroke:none;fill-opacity:1"/></svg>
